assets/img/cds-data-collaboration.svg

<svg fill="none" height="71" viewBox="0 0 74 71" width="74" xmlns="http://www.w3.org/2000/svg" xmlns:xlink="http://www.w3.org/1999/xlink"><mask id="a" fill="#fff"><path d="m66.7309 17.3999c1.502-1.3085 2.4568-3.2293 2.4568-5.3727 0-3.93255-3.199-7.13157-7.1315-7.13157-3.9326 0-7.1316 3.19902-7.1316 7.13157 0 3.9326 3.199 7.132 7.1316 7.132 2.2051 0 9.4023.3427 9.4023 4.7559 0 1.8613-1.0693 3.9972-9.4023 3.9972-8.3337 0-9.4024-2.1359-9.4024-3.9972 0-1.9374 1.36-3.3169 4.0458-4.1013.5824-.1705.9154-.7793.7455-1.3617-.1699-.5825-.7759-.9189-1.3618-.7467-3.6282 1.0591-5.6243 3.2648-5.6243 6.2086 0 6.1931 8.4252 6.1931 11.5985 6.1931 3.172 0 11.5985 0 11.5985-6.1931-.0023-3.3134-2.521-5.606-6.925-6.5142zm-9.6112-5.3727c0-2.72179 2.2136-4.93605 4.936-4.93605s4.9361 2.21367 4.9361 4.93605c0 2.7224-2.2137 4.9361-4.9361 4.9361-2.7218 0-4.936-2.2137-4.936-4.9361z" fill="#fff"/></mask><mask id="b" fill="#fff"><path d="m41.266 57.7876c1.502-1.3085 2.4569-3.2293 2.4569-5.3727 0-3.9326-3.199-7.1316-7.132-7.1316-3.9331 0-7.1338 3.199-7.1338 7.1316s3.2007 7.1316 7.1338 7.1316c2.2057 0 9.4001.3427 9.4001 4.7559 0 1.8636-1.0693 4.0011-9.4001 4.0011-8.3354 0-9.4042-2.1371-9.4042-4.0011 0-1.9333 1.3618-3.3123 4.0487-4.1013.5814-.17.9155-.781.745-1.3618-.1705-.5813-.7753-.9086-1.3623-.7438-3.6282 1.0637-5.6262 3.2671-5.6262 6.2069 0 6.1976 8.4275 6.1976 11.6001 6.1976 3.1721 0 11.5962 0 11.5962-6.1976-.0012-3.314-2.5192-5.6066-6.9221-6.5148zm-9.6136-5.3727c0-2.7206 2.2155-4.9361 4.939-4.9361 2.7224 0 4.9361 2.2149 4.9361 4.9361 0 2.7218-2.2137 4.9361-4.9361 4.9361-2.7235 0-4.939-2.2155-4.939-4.9361z" fill="#fff"/></mask><mask id="c" fill="#fff"><path d="m16.273 17.4c1.5019-1.3091 2.4568-3.2305 2.4568-5.3739 0-3.93255-3.199-7.13157-7.132-7.13157-3.93258 0-7.1316 3.19902-7.1316 7.13157 0 3.9326 3.19902 7.132 7.1316 7.132 2.2057 0 9.4024.3427 9.4024 4.7559 0 1.8613-1.0689 3.9972-9.4024 3.9972-8.33416.0006-9.40299-2.1353-9.40299-3.9978 0-1.9374 1.36062-3.3169 4.04579-4.1013.58247-.1705.91547-.7793.74669-1.3617-.17166-.5825-.78158-.9189-1.36177-.7467-3.62819 1.0591-5.62552 3.2648-5.62552 6.2086 0 6.1931 8.42569 6.1931 11.5985 6.1931 3.1726 0 11.5985 0 11.5985-6.1931-.0012-3.3122-2.5193-5.605-6.9239-6.5124zm-9.61128-5.3733c0-2.7218 2.21367-4.93607 4.93608-4.93607 2.7224 0 4.936 2.21368 4.936 4.93607 0 2.7224-2.2136 4.9361-4.936 4.9361-2.72182 0-4.93608-2.2137-4.93608-4.9361z" fill="#fff"/></mask><mask id="d" fill="#fff"><path d="m20.4683 61.3191c-.1871 0-.3759-.0475-.5487-.1477-10.05125-5.8184-16.29533-16.6161-16.29533-28.1832 0-.6071.4915-1.0975 1.09742-1.0975s1.09742.4915 1.09742 1.0975c0 10.7848 5.82409 20.8551 15.19969 26.282.5241.3044.7044.9755.4005 1.4984-.2036.3519-.571.5499-.9509.5499z" fill="#fff"/></mask><mask id="e" fill="#fff"><path d="m51.9207 61.3191c-.3799 0-.7472-.1969-.9509-.5488-.305-.5235-.1248-1.1941.3993-1.4984 9.3739-5.4253 15.1968-15.4971 15.1998-26.282 0-.6071.492-1.0974 1.0974-1.0974.607 0 1.0985.492 1.0985 1.0974-.0022 11.5664-6.2464 22.3667-16.2953 28.1818-.1739.1001-.3616.1476-.5487.1476z" fill="#fff"/></mask><mask id="f" fill="#fff"><path d="m52.3131 7.09006c-.1917 0-.3863-.05092-.5636-.15506-9.1959-5.50717-21.0851-5.65247-30.3497-.46403-.531.29638-1.1975.10585-1.4945-.42226-.2963-.52983-.1075-1.19755.4223-1.49449 9.9408-5.56209 22.6919-5.405219 32.5497.49607.5201.31183.69.98699.3782 1.50591-.206.34445-.5699.53383-.9424.53383z" fill="#fff"/></mask><g fill="#e11d48" stroke="#e11d48" stroke-width="2"><path d="m66.7309 17.3999c1.502-1.3085 2.4568-3.2293 2.4568-5.3727 0-3.93255-3.199-7.13157-7.1315-7.13157-3.9326 0-7.1316 3.19902-7.1316 7.13157 0 3.9326 3.199 7.132 7.1316 7.132 2.2051 0 9.4023.3427 9.4023 4.7559 0 1.8613-1.0693 3.9972-9.4023 3.9972-8.3337 0-9.4024-2.1359-9.4024-3.9972 0-1.9374 1.36-3.3169 4.0458-4.1013.5824-.1705.9154-.7793.7455-1.3617-.1699-.5825-.7759-.9189-1.3618-.7467-3.6282 1.0591-5.6243 3.2648-5.6243 6.2086 0 6.1931 8.4252 6.1931 11.5985 6.1931 3.172 0 11.5985 0 11.5985-6.1931-.0023-3.3134-2.521-5.606-6.925-6.5142zm-9.6112-5.3727c0-2.72179 2.2136-4.93605 4.936-4.93605s4.9361 2.21367 4.9361 4.93605c0 2.7224-2.2137 4.9361-4.9361 4.9361-2.7218 0-4.936-2.2137-4.936-4.9361z" mask="url(#a)"/><path d="m41.266 57.7876c1.502-1.3085 2.4569-3.2293 2.4569-5.3727 0-3.9326-3.199-7.1316-7.132-7.1316-3.9331 0-7.1338 3.199-7.1338 7.1316s3.2007 7.1316 7.1338 7.1316c2.2057 0 9.4001.3427 9.4001 4.7559 0 1.8636-1.0693 4.0011-9.4001 4.0011-8.3354 0-9.4042-2.1371-9.4042-4.0011 0-1.9333 1.3618-3.3123 4.0487-4.1013.5814-.17.9155-.781.745-1.3618-.1705-.5813-.7753-.9086-1.3623-.7438-3.6282 1.0637-5.6262 3.2671-5.6262 6.2069 0 6.1976 8.4275 6.1976 11.6001 6.1976 3.1721 0 11.5962 0 11.5962-6.1976-.0012-3.314-2.5192-5.6066-6.9221-6.5148zm-9.6136-5.3727c0-2.7206 2.2155-4.9361 4.939-4.9361 2.7224 0 4.9361 2.2149 4.9361 4.9361 0 2.7218-2.2137 4.9361-4.9361 4.9361-2.7235 0-4.939-2.2155-4.939-4.9361z" mask="url(#b)"/><path d="m16.273 17.4c1.5019-1.3091 2.4568-3.2305 2.4568-5.3739 0-3.93255-3.199-7.13157-7.132-7.13157-3.93258 0-7.1316 3.19902-7.1316 7.13157 0 3.9326 3.19902 7.132 7.1316 7.132 2.2057 0 9.4024.3427 9.4024 4.7559 0 1.8613-1.0689 3.9972-9.4024 3.9972-8.33416.0006-9.40299-2.1353-9.40299-3.9978 0-1.9374 1.36062-3.3169 4.04579-4.1013.58247-.1705.91547-.7793.74669-1.3617-.17166-.5825-.78158-.9189-1.36177-.7467-3.62819 1.0591-5.62552 3.2648-5.62552 6.2086 0 6.1931 8.42569 6.1931 11.5985 6.1931 3.1726 0 11.5985 0 11.5985-6.1931-.0012-3.3122-2.5193-5.605-6.9239-6.5124zm-9.61128-5.3733c0-2.7218 2.21367-4.93607 4.93608-4.93607 2.7224 0 4.936 2.21368 4.936 4.93607 0 2.7224-2.2136 4.9361-4.936 4.9361-2.72182 0-4.93608-2.2137-4.93608-4.9361z" mask="url(#c)"/><path d="m20.4683 61.3191c-.1871 0-.3759-.0475-.5487-.1477-10.05125-5.8184-16.29533-16.6161-16.29533-28.1832 0-.6071.4915-1.0975 1.09742-1.0975s1.09742.4915 1.09742 1.0975c0 10.7848 5.82409 20.8551 15.19969 26.282.5241.3044.7044.9755.4005 1.4984-.2036.3519-.571.5499-.9509.5499z" mask="url(#d)"/><path d="m51.9207 61.3191c-.3799 0-.7472-.1969-.9509-.5488-.305-.5235-.1248-1.1941.3993-1.4984 9.3739-5.4253 15.1968-15.4971 15.1998-26.282 0-.6071.492-1.0974 1.0974-1.0974.607 0 1.0985.492 1.0985 1.0974-.0022 11.5664-6.2464 22.3667-16.2953 28.1818-.1739.1001-.3616.1476-.5487.1476z" mask="url(#e)"/><path d="m52.3131 7.09006c-.1917 0-.3863-.05092-.5636-.15506-9.1959-5.50717-21.0851-5.65247-30.3497-.46403-.531.29638-1.1975.10585-1.4945-.42226-.2963-.52983-.1075-1.19755.4223-1.49449 9.9408-5.56209 22.6919-5.405219 32.5497.49607.5201.31183.69.98699.3782 1.50591-.206.34445-.5699.53383-.9424.53383z" mask="url(#f)"/></g></svg>

<svg width="74" height="71" viewBox="0 0 74 71" fill="none" xmlns="http://www.w3.org/2000/svg">
<mask id="path-1-inside-1_3207_825" fill="white">
<path d="M66.7309 17.3999C68.2329 16.0914 69.1877 14.1706 69.1877 12.0272C69.1877 8.09465 65.9887 4.89563 62.0562 4.89563C58.1236 4.89563 54.9246 8.09465 54.9246 12.0272C54.9246 15.9598 58.1236 19.1592 62.0562 19.1592C64.2613 19.1592 71.4585 19.5019 71.4585 23.9151C71.4585 25.7764 70.3892 27.9123 62.0562 27.9123C53.7225 27.9123 52.6538 25.7764 52.6538 23.9151C52.6538 21.9777 54.0138 20.5982 56.6996 19.8138C57.282 19.6433 57.615 19.0345 57.4451 18.4521C57.2752 17.8696 56.6692 17.5332 56.0833 17.7054C52.4551 18.7645 50.459 20.9702 50.459 23.914C50.459 30.1071 58.8842 30.1071 62.0575 30.1071C65.2295 30.1071 73.656 30.1071 73.656 23.914C73.6537 20.6006 71.135 18.308 66.731 17.3998L66.7309 17.3999ZM57.1197 12.0272C57.1197 9.30541 59.3333 7.09115 62.0557 7.09115C64.7781 7.09115 66.9918 9.30482 66.9918 12.0272C66.9918 14.7496 64.7781 16.9633 62.0557 16.9633C59.3339 16.9633 57.1197 14.7496 57.1197 12.0272V12.0272Z"/>
</mask>
<path d="M66.7309 17.3999C68.2329 16.0914 69.1877 14.1706 69.1877 12.0272C69.1877 8.09465 65.9887 4.89563 62.0562 4.89563C58.1236 4.89563 54.9246 8.09465 54.9246 12.0272C54.9246 15.9598 58.1236 19.1592 62.0562 19.1592C64.2613 19.1592 71.4585 19.5019 71.4585 23.9151C71.4585 25.7764 70.3892 27.9123 62.0562 27.9123C53.7225 27.9123 52.6538 25.7764 52.6538 23.9151C52.6538 21.9777 54.0138 20.5982 56.6996 19.8138C57.282 19.6433 57.615 19.0345 57.4451 18.4521C57.2752 17.8696 56.6692 17.5332 56.0833 17.7054C52.4551 18.7645 50.459 20.9702 50.459 23.914C50.459 30.1071 58.8842 30.1071 62.0575 30.1071C65.2295 30.1071 73.656 30.1071 73.656 23.914C73.6537 20.6006 71.135 18.308 66.731 17.3998L66.7309 17.3999ZM57.1197 12.0272C57.1197 9.30541 59.3333 7.09115 62.0557 7.09115C64.7781 7.09115 66.9918 9.30482 66.9918 12.0272C66.9918 14.7496 64.7781 16.9633 62.0557 16.9633C59.3339 16.9633 57.1197 14.7496 57.1197 12.0272V12.0272Z" fill="#e11d48" stroke="#e11d48" stroke-width="2" mask="url(#path-1-inside-1_3207_825)"/>
<mask id="path-2-inside-2_3207_825" fill="white">
<path d="M41.266 57.7876C42.768 56.4791 43.7229 54.5583 43.7229 52.4149C43.7229 48.4823 40.5239 45.2833 36.5909 45.2833C32.6578 45.2833 29.4571 48.4823 29.4571 52.4149C29.4571 56.3475 32.6578 59.5465 36.5909 59.5465C38.7966 59.5465 45.991 59.8892 45.991 64.3024C45.991 66.166 44.9217 68.3035 36.5909 68.3035C28.2555 68.3035 27.1867 66.1664 27.1867 64.3024C27.1867 62.3691 28.5485 60.9901 31.2354 60.2011C31.8168 60.0311 32.1509 59.4201 31.9804 58.8393C31.8099 58.258 31.2051 57.9307 30.6181 58.0955C26.9899 59.1592 24.9919 61.3626 24.9919 64.3024C24.9919 70.5 33.4194 70.5 36.592 70.5C39.7641 70.5 48.1882 70.5 48.1882 64.3024C48.187 60.9884 45.669 58.6958 41.2661 57.7876H41.266ZM31.6524 52.4149C31.6524 49.6943 33.8679 47.4788 36.5914 47.4788C39.3138 47.4788 41.5275 49.6937 41.5275 52.4149C41.5275 55.1367 39.3138 57.351 36.5914 57.351C33.8679 57.351 31.6524 55.1355 31.6524 52.4149Z"/>
</mask>
<path d="M41.266 57.7876C42.768 56.4791 43.7229 54.5583 43.7229 52.4149C43.7229 48.4823 40.5239 45.2833 36.5909 45.2833C32.6578 45.2833 29.4571 48.4823 29.4571 52.4149C29.4571 56.3475 32.6578 59.5465 36.5909 59.5465C38.7966 59.5465 45.991 59.8892 45.991 64.3024C45.991 66.166 44.9217 68.3035 36.5909 68.3035C28.2555 68.3035 27.1867 66.1664 27.1867 64.3024C27.1867 62.3691 28.5485 60.9901 31.2354 60.2011C31.8168 60.0311 32.1509 59.4201 31.9804 58.8393C31.8099 58.258 31.2051 57.9307 30.6181 58.0955C26.9899 59.1592 24.9919 61.3626 24.9919 64.3024C24.9919 70.5 33.4194 70.5 36.592 70.5C39.7641 70.5 48.1882 70.5 48.1882 64.3024C48.187 60.9884 45.669 58.6958 41.2661 57.7876H41.266ZM31.6524 52.4149C31.6524 49.6943 33.8679 47.4788 36.5914 47.4788C39.3138 47.4788 41.5275 49.6937 41.5275 52.4149C41.5275 55.1367 39.3138 57.351 36.5914 57.351C33.8679 57.351 31.6524 55.1355 31.6524 52.4149Z" fill="#e11d48" stroke="#e11d48" stroke-width="2" mask="url(#path-2-inside-2_3207_825)"/>
<mask id="path-3-inside-3_3207_825" fill="white">
<path d="M16.273 17.4C17.7749 16.0909 18.7298 14.1695 18.7298 12.0261C18.7298 8.09355 15.5308 4.89453 11.5978 4.89453C7.66522 4.89453 4.4662 8.09355 4.4662 12.0261C4.4662 15.9587 7.66522 19.1581 11.5978 19.1581C13.8035 19.1581 21.0002 19.5008 21.0002 23.914C21.0002 25.7753 19.9313 27.9112 11.5978 27.9112C3.26364 27.9118 2.19481 25.7759 2.19481 23.9134C2.19481 21.976 3.55543 20.5965 6.2406 19.8121C6.82307 19.6416 7.15607 19.0328 6.98729 18.4504C6.81563 17.8679 6.20571 17.5315 5.62552 17.7037C1.99733 18.7628 0 20.9685 0 23.9123C0 30.1054 8.42569 30.1054 11.5985 30.1054C14.7711 30.1054 23.197 30.1054 23.197 23.9123C23.1958 20.6001 20.6777 18.3073 16.2731 17.3999L16.273 17.4ZM6.66172 12.0267C6.66172 9.3049 8.87539 7.09063 11.5978 7.09063C14.3202 7.09063 16.5338 9.30431 16.5338 12.0267C16.5338 14.7491 14.3202 16.9628 11.5978 16.9628C8.87598 16.9628 6.66172 14.7491 6.66172 12.0267V12.0267Z"/>
</mask>
<path d="M16.273 17.4C17.7749 16.0909 18.7298 14.1695 18.7298 12.0261C18.7298 8.09355 15.5308 4.89453 11.5978 4.89453C7.66522 4.89453 4.4662 8.09355 4.4662 12.0261C4.4662 15.9587 7.66522 19.1581 11.5978 19.1581C13.8035 19.1581 21.0002 19.5008 21.0002 23.914C21.0002 25.7753 19.9313 27.9112 11.5978 27.9112C3.26364 27.9118 2.19481 25.7759 2.19481 23.9134C2.19481 21.976 3.55543 20.5965 6.2406 19.8121C6.82307 19.6416 7.15607 19.0328 6.98729 18.4504C6.81563 17.8679 6.20571 17.5315 5.62552 17.7037C1.99733 18.7628 0 20.9685 0 23.9123C0 30.1054 8.42569 30.1054 11.5985 30.1054C14.7711 30.1054 23.197 30.1054 23.197 23.9123C23.1958 20.6001 20.6777 18.3073 16.2731 17.3999L16.273 17.4ZM6.66172 12.0267C6.66172 9.3049 8.87539 7.09063 11.5978 7.09063C14.3202 7.09063 16.5338 9.30431 16.5338 12.0267C16.5338 14.7491 14.3202 16.9628 11.5978 16.9628C8.87598 16.9628 6.66172 14.7491 6.66172 12.0267V12.0267Z" fill="#e11d48" stroke="#e11d48" stroke-width="2" mask="url(#path-3-inside-3_3207_825)"/>
<mask id="path-4-inside-4_3207_825" fill="white">
<path d="M20.4683 61.3191C20.2812 61.3191 20.0924 61.2716 19.9196 61.1714C9.86835 55.353 3.62427 44.5553 3.62427 32.9882C3.62427 32.3811 4.11577 31.8907 4.72169 31.8907C5.32761 31.8907 5.81911 32.3822 5.81911 32.9882C5.81911 43.773 11.6432 53.8433 21.0188 59.2702C21.5429 59.5746 21.7232 60.2457 21.4193 60.7686C21.2157 61.1205 20.8483 61.3185 20.4684 61.3185L20.4683 61.3191Z"/>
</mask>
<path d="M20.4683 61.3191C20.2812 61.3191 20.0924 61.2716 19.9196 61.1714C9.86835 55.353 3.62427 44.5553 3.62427 32.9882C3.62427 32.3811 4.11577 31.8907 4.72169 31.8907C5.32761 31.8907 5.81911 32.3822 5.81911 32.9882C5.81911 43.773 11.6432 53.8433 21.0188 59.2702C21.5429 59.5746 21.7232 60.2457 21.4193 60.7686C21.2157 61.1205 20.8483 61.3185 20.4684 61.3185L20.4683 61.3191Z" fill="#e11d48" stroke="#e11d48" stroke-width="2" mask="url(#path-4-inside-4_3207_825)"/>
<mask id="path-5-inside-5_3207_825" fill="white">
<path d="M51.9207 61.3191C51.5408 61.3191 51.1735 61.1222 50.9698 60.7703C50.6648 60.2468 50.845 59.5762 51.3691 59.2719C60.743 53.8466 66.5659 43.7748 66.5689 32.9899C66.5689 32.3828 67.0609 31.8925 67.6663 31.8925C68.2733 31.8925 68.7648 32.3845 68.7648 32.9899C68.7626 44.5563 62.5184 55.3566 52.4695 61.1717C52.2956 61.2718 52.1079 61.3193 51.9208 61.3193L51.9207 61.3191Z"/>
</mask>
<path d="M51.9207 61.3191C51.5408 61.3191 51.1735 61.1222 50.9698 60.7703C50.6648 60.2468 50.845 59.5762 51.3691 59.2719C60.743 53.8466 66.5659 43.7748 66.5689 32.9899C66.5689 32.3828 67.0609 31.8925 67.6663 31.8925C68.2733 31.8925 68.7648 32.3845 68.7648 32.9899C68.7626 44.5563 62.5184 55.3566 52.4695 61.1717C52.2956 61.2718 52.1079 61.3193 51.9208 61.3193L51.9207 61.3191Z" fill="#e11d48" stroke="#e11d48" stroke-width="2" mask="url(#path-5-inside-5_3207_825)"/>
<mask id="path-6-inside-6_3207_825" fill="white">
<path d="M52.3131 7.09006C52.1214 7.09006 51.9268 7.03914 51.7495 6.935C42.5536 1.42783 30.6644 1.28253 21.3998 6.47097C20.8688 6.76735 20.2023 6.57682 19.9053 6.04871C19.609 5.51888 19.7978 4.85116 20.3276 4.55422C30.2684 -1.00787 43.0195 -0.850999 52.8773 5.05029C53.3974 5.36212 53.5673 6.03728 53.2555 6.5562C53.0495 6.90065 52.6856 7.09003 52.3131 7.09003L52.3131 7.09006Z"/>
</mask>
<path d="M52.3131 7.09006C52.1214 7.09006 51.9268 7.03914 51.7495 6.935C42.5536 1.42783 30.6644 1.28253 21.3998 6.47097C20.8688 6.76735 20.2023 6.57682 19.9053 6.04871C19.609 5.51888 19.7978 4.85116 20.3276 4.55422C30.2684 -1.00787 43.0195 -0.850999 52.8773 5.05029C53.3974 5.36212 53.5673 6.03728 53.2555 6.5562C53.0495 6.90065 52.6856 7.09003 52.3131 7.09003L52.3131 7.09006Z" fill="#e11d48" stroke="#e11d48" stroke-width="2" mask="url(#path-6-inside-6_3207_825)"/>
</svg>
